/* XPM */
static char *collect_xpm[] = {
"32 32 7 1",
"  c None",
"p c #F6AECF",
"P c #E96FA4",
"y c #FCD94B",
"o c #F0A93B",
"g c #5DA95B",
"G c #48894B",
"                                ",
"                                ",
"                                ",
"                                ",
"                                ",
"             PPP PPP            ",
"           PPpppPpppPP          ",
"           PpppppppppP          ",
"           PpppppppppP          ",
"          PPppppoppppPP         ",
"         PppppooyooppppP        ",
"         PppppoyyyoppppP        ",
"        PppppoyyyyyoppppP       ",
"         PppppoyyyoppppP        ",
"         PppppooyooppppP        ",
"          PPppppoppppPP         ",
"           PpppppppppP          ",
"           PpppppppppP          ",
"           PPpppPpppPP          ",
"             PPPgPPP            ",
"                gG              ",
"                gG              ",
"          ggggg gG              ",
"         ggggggggG              ",
"          ggggg gGggggg         ",
"                gggggggg        ",
"                gGggggg         ",
"                gG              ",
"                gG              ",
"                                ",
"                                ",
"                                "
};
