/* XPM */
static char *exit_xpm[] = {
"32 32 7 1",
"  c None",
"y c #FCD94B",
"o c #F0A93B",
"b c #9A5B2A",
"B c #6E3F1B",
"g c #5DA95B",
"G c #48894B",
"                                ",
"                                ",
"               ooo              ",
"           oo oyyyo oo          ",
"         ooyyoyyyyyoyyoo        ",
"         oyyyyyyyyyyyyyo        ",
"         oyyyyyyyyyyyyyo        ",
"      ooooyyyyoyyyoyyyyoooo     ",
"      oyyyyyyyoooooyyyyyyyo     ",
"     oyyyyyooobbbbboooyyyyyo    ",
"     oyyyyyo bbbBbbb oyyyyyo    ",
"      oyyyyobbbBbBbbboyyyyo     ",
"     oyyyoobbbBbBbBbbbooyyyo    ",
"    oyyyyyobbBbBbBbBbboyyyyyo   ",
"    oyyyyyobBbBbBbBbBboyyyyyo   ",
"    oyyyyyobbBbBbBbBbboyyyyyo   ",
"     oyyyoobbbBbBbBbbbooyyyo    ",
"      oyyyyobbbBbBbbboyyyyo     ",
"     oyyyyyo bbbBbbb oyyyyyo    ",
"     oyyyyyooobbbbboooyyyyyo    ",
"      oyyyyyyyoooooyyyyyyyo     ",
"      ooooyyyyoyyyoyyyyoooo     ",
"         oyyyyyyyyyyyyyo        ",
"         oyyyyyyyyyyyyyo        ",
"         ooyyoyyyyyoyyoo        ",
"         g oo oyyyo oo          ",
"      ggggggg  ooo     G        ",
"     ggggggggg Gg   GGGGGGG     ",
"      ggggggg  Gg  GGGGGGGGG    ",
"         g     Gg   GGGGGGG     ",
"                       G        ",
"                                "
};
