/* XPM */
static char *player_xpm[] = {
"32 32 8 1",
"  c None",
"k c #34322F",
"K c #1E1C1A",
"w c #F7F4EE",
"e c #8BD06F",
"P c #1E1C1A",
"n c #EE8FB0",
"p c #F3C0D6",
"                                ",
"      k                   k     ",
"      kk                 kk     ",
"      kkk               kkk     ",
"      kkpk      k      kpkk     ",
"      kkpkk  kkkkkkk  kkpkk     ",
"      kkppkkkkkkkkkkkkkppkk     ",
"      kkppkkkkkkkkkkkkkppkk     ",
"      kkppkkkkkkkkkkkkkppkk     ",
"      kkpkkkekkkkkkkekkkpkk     ",
"      kk kkweekkkkkweekk kk     ",
"     k   keePeekkkeePeek   k    ",
"        kkkeeekkwkkeeekkk       ",
"         kkkewwwwwwwekkk        ",
"         kkkwwwnnnwwwkkk        ",
"         kkkwwwwKwwwwkkk  kkk   ",
"          kkwwwwwwwwwkk   kkk   ",
"          kkkwwwwwwwkkk   kkkk  ",
"           kkkkkwkkkkk     kkk  ",
"           kkkkkkkkkkk     kkk  ",
"          kkkkkkkkkkkkk    kkk  ",
"         kkkkkwwwwwkkkkk   kkk  ",
"         kkkkwwwwwwwkkkk  kkk   ",
"         kkkkwwwwwwwkkkk  kkk   ",
"        kkkkwwwwwwwwwkkkkkkkk   ",
"         kkkwwwwwwwwwkkkkkkk    ",
"         kkkwwwwwwwwwkkkkkk     ",
"         kkkkwwwwwwwkkkkkkk     ",
"          kwkwwwwwwwkwkkkk      ",
"          wwwkwwwwwkwww         ",
"         wwwwwkkwkkwwwww        ",
"          www   k   www         "
};
