/* XPM */
static char *wall_xpm[] = {
"32 32 8 1",
"g c #5DA95B",
"G c #48894B",
"p c #EE7FB0",
"P c #D85C9C",
"y c #FCD94B",
"o c #F39C5A",
"u c #A773C6",
"w c #FBFBFB",
"GgggGgggGgggGgggGgggGgggGgggGggg",
"gggGgggGgggGgggGgggGgggGgggGgggG",
"ggGgggGgggGgggGgggGgggGgggGgggGg",
"gGgggGgggGgggGgggogggGgggGgggGgg",
"GgggGgPgGgggGgggooogGgggGgggGggg",
"gggGgPyPgggGgggooyoogggGgggPgggG",
"ggGgPypyPgGgggGgooogggGgggPyPgGg",
"gGgggPyPgGgggGgggogggGgggPyuyPgg",
"GgggGgPgGggwGgggGgggGgggGgPyPggg",
"gggGgggGggwywggGgggGgggGgggPgggG",
"ggGgggGggwywywGgggGgggGgggGgggGg",
"gGgggGgggGwywGgggGgggGgggGgggGgg",
"GgggGgggGggwGgggGgggGgggGgggGggg",
"gggGgggGgggGgggPgggGgggGgggGgggG",
"ggGggoGgggGgggPyPgGgggGgggGgggGg",
"gGggoyoggGgggPypyPgggGgggogggGgg",
"GggoyoyoGgggGgPyPgggGgggooogGggg",
"gggGoyoGgggGgggPgggGgggooyoogggG",
"ggGggoGgggGgggGgggGgggGgooogggGg",
"gGgggGgggGgggGgggGgggGgggogggGgg",
"GgggGgggGgggGgggGgggGgggGgggGggg",
"gggGgggGgggGgggGgggGggwGgggGgggG",
"ggGgggGgggGgggGgggGggwywggGgggGg",
"gGgggGgggGgggGgggGggwywywGgggGgg",
"GgggGgggPgggGgggGgPgGwywGgggGggg",
"gggGgggPyPgGgggGgPyPggwGgggGoggG",
"ggGgggPyuyPgggGgPypyPgGgggGoooGg",
"gGgggGgPyPgggGgggPyPgGgggGooyoog",
"GgggGgggPgggGgggGgPgGgggGggooogg",
"gggGgggGgggGgggGgggGgggGgggGoggG",
"ggGgggGgggGgggGgggGgggGgggGgggGg",
"gGgggGgggGgggGgggGgggGgggGgggGgg"
};
